Themes/OneUI/assets/svg/security-squircle.svg

<?xml version="1.0" encoding="UTF-8" standalone="no"?>
<svg
   id="vector"
   width="28.000011"
   height="28.000034"
   viewBox="0 0 28.000011 28.000034"
   version="1.1"
   sodipodi:docname="security-squircle.svg"
   xmlns:inkscape="http://www.inkscape.org/namespaces/inkscape"
   xmlns:sodipodi="http://sodipodi.sourceforge.net/DTD/sodipodi-0.dtd"
   xmlns="http://www.w3.org/2000/svg"
   xmlns:svg="http://www.w3.org/2000/svg">
  <defs
     id="defs2284" />
  <sodipodi:namedview
     id="namedview2282"
     pagecolor="#ffffff"
     bordercolor="#666666"
     borderopacity="1.0"
     inkscape:showpageshadow="2"
     inkscape:pageopacity="0.0"
     inkscape:pagecheckerboard="0"
     inkscape:deskcolor="#d1d1d1" />
  <path
     fill="@color/sec_dashboard_lock_screen_security_color"
     d="m 24.855991,3.144014 c -1.726,-1.6224 -4.0821,-2.54279996 -6.6822,-2.88709996 -2.4831,-0.3291 -4.1738,-0.2481 -4.1738,-0.2481 0,0 -1.691,-0.081 -4.1742004,0.2481 -2.6,0.3443 -4.956,1.26469996 -6.6815,2.88709996 -1.6228,1.7258 -2.5431,4.0819 -2.8876,6.6819 -0.3291,2.483 -0.2478,4.174 -0.2478,4.174 0,0 -0.0813,1.6908 0.2478,4.174 0.3445,2.5998 1.2648,4.9561 2.8874,6.6819 1.7257,1.6226 4.0817,2.5428 6.6817,2.8875 2.4832004,0.3289 4.1742004,0.2479 4.1742004,0.2479 0,0 1.6907,0.081 4.1738,-0.2479 2.6001,-0.3447 4.9562,-1.2649 6.6818,-2.8875 1.623,-1.7258 2.5432,-4.0821 2.8877,-6.6819 0.3289,-2.4832 0.2479,-4.174 0.2479,-4.174 0,0 0.081,-1.691 -0.2479,-4.174 -0.3445,-2.6 -1.2647,-4.9561 -2.8873,-6.6819 z"
     stroke="#00000000"
     stroke-width="1"
     fill-rule="evenodd"
     id="path_0" />
  <path
     fill="#ffffffff"
     d="m 18.309191,11.631314 v 0 l -0.0958,-2.5876 c 0,-2.3958 -1.9167,-4.3125 -4.2167,-4.3125 -2.3,0 -4.2167004,1.9167 -4.2167004,4.3125 v 2.5876 h -0.0958 c -1.15,0 -2.1083,0.9583 -2.1083,2.1083 v 6.4208 c 0,1.15 0.9583,2.1083 2.1083,2.1083 h 8.6250004 c 1.15,0 2.1083,-0.9583 2.1083,-2.1083 v -6.4208 c 0.0959,-1.15 -0.8625,-2.1083 -2.1083,-2.1083 z m -5.4625,4.2166 c 0,-0.6708 0.575,-1.2458 1.2458,-1.2458 0.6709,0 1.2459,0.575 1.2459,1.2458 0,0.3834 -0.1917,0.7667 -0.4792,0.9583 v 2.0126 c 0,0.3833 -0.2875,0.7666 -0.7667,0.7666 -0.4791,0 -0.7666,-0.2875 -0.7666,-0.7666 v -2.0126 c -0.2875,-0.1916 -0.4792,-0.5749 -0.4792,-0.9583 z m -1.6292,-6.9 c 0,-1.6292 1.2459,-2.875 2.7792,-2.875 1.5333,0 2.7792,1.2458 2.7792,2.875 v 2.5875 h -5.5584 z"
     stroke="#00000000"
     stroke-width="1"
     fill-rule="nonzero"
     id="path_1" />
</svg>

<svg id="vector" xmlns="http://www.w3.org/2000/svg" width="28.0d" height="28.0d" viewBox="0 0 28.0 28.0"><path fill="@color/sec_dashboard_lock_screen_security_color" d="M24.856,3.144C23.13,1.5216 20.7739,0.6012 18.1738,0.2569C15.6907,-0.0722 14,0.0088 14,0.0088C14,0.0088 12.309,-0.0722 9.8258,0.2569C7.2258,0.6012 4.8698,1.5216 3.1443,3.144C1.5215,4.8698 0.6012,7.2259 0.2567,9.8259C-0.0724,12.3089 0.0089,13.9999 0.0089,13.9999C0.0089,13.9999 -0.0724,15.6907 0.2567,18.1739C0.6012,20.7737 1.5215,23.13 3.1441,24.8558C4.8698,26.4784 7.2258,27.3986 9.8258,27.7433C12.309,28.0722 14,27.9912 14,27.9912C14,27.9912 15.6907,28.0722 18.1738,27.7433C20.7739,27.3986 23.13,26.4784 24.8556,24.8558C26.4786,23.13 27.3988,20.7737 27.7433,18.1739C28.0722,15.6907 27.9912,13.9999 27.9912,13.9999C27.9912,13.9999 28.0722,12.3089 27.7433,9.8259C27.3988,7.2259 26.4786,4.8698 24.856,3.144Z" stroke="#00000000" stroke-width="1.0" fill-rule="evenodd" id="path_0"/><path fill="#ffffffff" d="M18.3092,11.6313L18.3092,11.6313L18.2134,9.0437C18.2134,6.6479 16.2967,4.7312 13.9967,4.7312C11.6967,4.7312 9.78,6.6479 9.78,9.0437L9.78,11.6313L9.6842,11.6313C8.5342,11.6313 7.5759,12.5896 7.5759,13.7396L7.5759,20.1604C7.5759,21.3104 8.5342,22.2687 9.6842,22.2687L18.3092,22.2687C19.4592,22.2687 20.4175,21.3104 20.4175,20.1604L20.4175,13.7396C20.5134,12.5896 19.555,11.6313 18.3092,11.6313ZM12.8467,15.8479C12.8467,15.1771 13.4217,14.6021 14.0925,14.6021C14.7634,14.6021 15.3384,15.1771 15.3384,15.8479C15.3384,16.2313 15.1467,16.6146 14.8592,16.8062L14.8592,18.8188C14.8592,19.2021 14.5717,19.5854 14.0925,19.5854C13.6134,19.5854 13.3259,19.2979 13.3259,18.8188L13.3259,16.8062C13.0384,16.6146 12.8467,16.2313 12.8467,15.8479ZM11.2175,8.9479C11.2175,7.3187 12.4634,6.0729 13.9967,6.0729C15.53,6.0729 16.7759,7.3187 16.7759,8.9479L16.7759,11.5354L11.2175,11.5354L11.2175,8.9479Z" stroke="#00000000" stroke-width="1.0" fill-rule="nonzero" id="path_1"/></svg>
